packages/ffe-icons/icons/filled/md/border_all.svg

<svg xmlns="http://www.w3.org/2000/svg" height="24" viewBox="0 -960 960 960" width="24"><path d="M582.306-140.001q-29.826 0-51.066-21.241-21.241-21.24-21.241-51.067v-165.385q0-29.826 21.241-51.066 21.24-21.241 51.066-21.241h165.385q29.827 0 51.067 21.241 21.241 21.24 21.241 51.066v165.385q0 29.827-21.241 51.067-21.24 21.241-51.067 21.241H582.306Zm0-369.998q-29.826 0-51.066-21.241-21.241-21.24-21.241-51.066v-165.385q0-29.827 21.241-51.067 21.24-21.241 51.066-21.241h165.385q29.827 0 51.067 21.241 21.241 21.24 21.241 51.067v165.385q0 29.826-21.241 51.066-21.24 21.241-51.067 21.241H582.306Zm-369.997 0q-29.827 0-51.067-21.241-21.241-21.24-21.241-51.066v-165.385q0-29.827 21.241-51.067 21.24-21.241 51.067-21.241h165.385q29.826 0 51.066 21.241 21.241 21.24 21.241 51.067v165.385q0 29.826-21.241 51.066-21.24 21.241-51.066 21.241H212.309Zm0 369.998q-29.827 0-51.067-21.241-21.241-21.24-21.241-51.067v-165.385q0-29.826 21.241-51.066 21.24-21.241 51.067-21.241h165.385q29.826 0 51.066 21.241 21.241 21.24 21.241 51.066v165.385q0 29.827-21.241 51.067-21.24 21.241-51.066 21.241H212.309Z"/></svg>

<svg xmlns="http://www.w3.org/2000/svg" height="24" viewBox="0 -960 960 960" width="24"><path d="M582.31-140q-29.83 0-51.07-21.24Q510-182.48 510-212.31v-165.38q0-29.83 21.24-51.07Q552.48-450 582.31-450h165.38q29.83 0 51.07 21.24Q820-407.52 820-377.69v165.38q0 29.83-21.24 51.07Q777.52-140 747.69-140H582.31Zm0-370q-29.83 0-51.07-21.24Q510-552.48 510-582.31v-165.38q0-29.83 21.24-51.07Q552.48-820 582.31-820h165.38q29.83 0 51.07 21.24Q820-777.52 820-747.69v165.38q0 29.83-21.24 51.07Q777.52-510 747.69-510H582.31Zm-370 0q-29.83 0-51.07-21.24Q140-552.48 140-582.31v-165.38q0-29.83 21.24-51.07Q182.48-820 212.31-820h165.38q29.83 0 51.07 21.24Q450-777.52 450-747.69v165.38q0 29.83-21.24 51.07Q407.52-510 377.69-510H212.31Zm0 370q-29.83 0-51.07-21.24Q140-182.48 140-212.31v-165.38q0-29.83 21.24-51.07Q182.48-450 212.31-450h165.38q29.83 0 51.07 21.24Q450-407.52 450-377.69v165.38q0 29.83-21.24 51.07Q407.52-140 377.69-140H212.31Z"/></svg>
